X:2117
T:Flöteren stämma
O:Norge
M:5/4
L:1/4
K:D
|: a>a a aa | a>a a aa| a>a a aa | ba f | 
g>g g gg | f>f f ff | =f>f f ff |1 ee e4 :|2 ee d4 |
|: G>G G GG | AA A4 | B>B B BB | dd dd dd |
G>G G GG | AA A4 | G>A B(B c)d e :|

(:musicend:)
(:music:)
